static/assets/images/icons/speedometer.svg

<svg width="256" height="256" viewBox="0 0 256 256" fill="none" xmlns="http://www.w3.org/2000/svg">
<path fill-rule="evenodd" clip-rule="evenodd" d="M55.5879 213C51.7334 213 48.1873 212.162 44.9495 210.486C41.7118 208.81 39.1258 206.303 37.1915 202.966C32.6362 194.692 29.1321 186.111 26.6793 177.225C24.2264 168.338 23 159.138 23 149.625C23 135.014 25.7612 121.282 31.2836 108.431C36.8061 95.5802 44.2943 84.4016 53.7483 74.8953C63.2023 65.3891 74.3277 57.865 87.1246 52.3232C99.9215 46.7815 113.587 44.007 128.122 44C142.489 44 155.98 46.7286 168.594 52.1859C181.209 57.6432 192.247 65.0827 201.708 74.5045C211.169 83.9262 218.703 94.9288 224.309 107.512C229.916 120.096 232.807 133.605 232.982 148.041C233.157 157.723 232.064 167.187 229.702 176.433C227.34 185.678 223.703 194.523 218.79 202.966C216.863 206.31 214.281 208.821 211.043 210.497C207.805 212.173 204.252 213.007 200.383 213H55.5879ZM116.246 172.686C121.517 175.956 127.362 176.695 133.781 174.902C140.2 173.109 144.334 169.638 146.183 164.488L174.105 89.204C175.075 86.441 174.349 84.3052 171.928 82.7967C169.506 81.2882 167.28 81.5926 165.251 83.7101L110.766 142.512C107.058 146.649 105.729 151.896 106.779 158.253C107.828 164.61 110.984 169.421 116.246 172.686ZM204.334 191.52L176.793 175.543C174.258 174.072 171.017 174.945 169.553 177.492C168.089 180.04 168.958 183.297 171.493 184.767L199.034 200.744C201.569 202.215 204.811 201.342 206.274 198.795C207.738 196.248 206.869 192.991 204.334 191.52ZM178.082 118.971L206.904 105.467C209.557 104.224 212.711 105.377 213.948 108.043C215.185 110.708 214.037 113.877 211.384 115.12L182.562 128.624C179.909 129.867 176.756 128.714 175.519 126.048C174.282 123.383 175.429 120.214 178.082 118.971ZM122.645 62.6397V94.5935C122.645 97.5347 125.018 99.9191 127.946 99.9191C130.873 99.9191 133.246 97.5347 133.246 94.5935V62.6397C133.246 59.6984 130.873 57.3141 127.946 57.3141C125.018 57.3141 122.645 59.6984 122.645 62.6397ZM49.3723 105.365L78.1945 118.869C80.8475 120.112 81.9953 123.281 80.7582 125.947C79.521 128.613 76.3675 129.766 73.7145 128.523L44.8923 115.019C42.2393 113.775 41.0915 110.607 42.3286 107.941C43.5658 105.275 46.7193 104.122 49.3723 105.365ZM80.0426 175.543L52.5015 191.52C49.9664 192.991 49.0979 196.248 50.5615 198.795C52.0251 201.342 55.2667 202.215 57.8018 200.744L85.3429 184.767C87.878 183.297 88.7466 180.04 87.2829 177.492C85.8193 174.945 82.5777 174.072 80.0426 175.543Z" fill="black"/>
</svg>

<svg xmlns="http://www.w3.org/2000/svg" fill="none" viewBox="0 0 256 256"><path fill="#000" fill-rule="evenodd" d="M55.588 213q-5.782 0-10.638-2.514-4.857-2.514-7.759-7.52-6.832-12.411-10.512-25.741T23 149.625q0-21.917 8.284-41.194 8.283-19.276 22.464-33.536Q67.93 60.636 87.125 52.323q19.194-8.312 40.997-8.323 21.55 0 40.472 8.186t33.114 22.318 22.601 33.008q8.41 18.875 8.673 40.529.263 14.523-3.28 28.392t-10.912 26.533q-2.89 5.017-7.747 7.531T200.383 213zm60.658-40.314q7.907 4.905 17.535 2.216t12.402-10.414l27.922-75.284q1.455-4.145-2.177-6.407t-6.677.913l-54.485 58.802q-5.562 6.206-3.987 15.741 1.574 9.536 9.467 14.433m88.088 18.834-27.541-15.977a5.286 5.286 0 0 0-7.24 1.949c-1.464 2.548-.595 5.805 1.94 7.275l27.541 15.977a5.286 5.286 0 0 0 7.24-1.949c1.464-2.547.595-5.804-1.94-7.275m-26.252-72.549 28.822-13.504a5.29 5.29 0 0 1 7.044 2.576c1.237 2.665.089 5.834-2.564 7.077l-28.822 13.504a5.29 5.29 0 0 1-7.043-2.576c-1.237-2.665-.09-5.834 2.563-7.077M122.645 62.64v31.954c0 2.94 2.373 5.325 5.301 5.325s5.3-2.384 5.3-5.325V62.64c0-2.942-2.373-5.326-5.3-5.326-2.928 0-5.301 2.384-5.301 5.326m-73.273 42.725 28.823 13.504c2.653 1.243 3.8 4.412 2.563 7.078a5.29 5.29 0 0 1-7.043 2.576l-28.823-13.504c-2.653-1.244-3.8-4.412-2.563-7.078a5.29 5.29 0 0 1 7.043-2.576m30.67 70.178-27.54 15.977c-2.536 1.471-3.404 4.728-1.94 7.275a5.286 5.286 0 0 0 7.24 1.949l27.54-15.977c2.536-1.47 3.405-4.727 1.94-7.275a5.286 5.286 0 0 0-7.24-1.949" clip-rule="evenodd"/></svg>
